!!!!SEGMENT: pl-wtm--iii-41-976--001-011_damse-jozef--wesele-w-ojcowie-solo-mazur.krn
!!!cenid: 18xx:4263
!!!COM: Damse, Józef
!!!COM-rismID: pe30008765
!!!CDT: 1789-1852
!!!CNT:
!!!GTL: Wesele w Ojcowie
!!!OTL: Solo Mazur
!!!OMV: 011
!!!PDT:
!!!AGN:
!!!SMS-siglum: PL-Wtm
!!!SMS-shelfmark: III.41.976
!!!SMS-shelfwork: 001-011 G
!!!SMS-variant:
!!!SMS-altvar:
!!!NIFC-rismSourceID: 1001130735
!!!NIFC-rismChildID: 1001130735
!!!NIFC-islandoraID: pl-wtm:23143
!!!URL-pdf-islandora: https://repozytorium.nifc.pl/islandora/object/pl-wtm:23143/datastream/PDF/view
!!!URL-scan: https://polish.musicsources.pl/pl/lokalizacje/galeria/druki-muzyczne/17811/11 @EN{Scan on Polish Music Sources Website} @PL{Skany w portalu Dziedzictwo Muzyki Polskiej w otwartym dostępie}
!!!IIIF:
!!!ONB-nifc: UWAGA: skany 11-12 (razem Coda)
!!!AIN: 2 piano
!!!key: D
**kern	**kern	**dynam
*part2	*part1	*part1
*staff2	*staff1	*
*I"[Piano]	*I"[Piano]	*
*I'pf	*I'pf	*
*ICklav	*ICklav	*
*Ipiano	*Ipiano	*
*>[A,A1,A,A2,B]	*>[A,A1,A,A2,B]	*>[A,A1,A,A2,B]
*>A	*>A	*>A
*clefF4	*clefG2	*
*k[f#c#]	*k[f#c#]	*
*D:	*D:	*
*M3/8	*M3/8	*
=1	=1	=1
8D|\ 8d	8dd|\ 8ddd	f
4D^^\ 4d	4dd^^\ 4ddd	.
=2	=2	=2
8AA|\ 8A	8a|\ 8aa	.
4AA^^\ 4A	4a^^\ 4aa	.
=3	=3	=3
8FF#|\L 8F#	8ff#|\L	.
(16A\L	(16aa\L	.
16F#\J)	16ff#\J)	.
8D\J	8dd\J	.
=4	=4	=4
8AA/	8a|\	.
4AAA^^</ 4AA	4a^^\ 4cc# 4aa	.
=5||	=5||	=5||
8DD\L 8D	8a|\	p
8F#\ 8A 8d	8.a^\L 8.ff#	.
8FF#\J 8F#	.	.
.	16ee\Jk	.
=6	=6	=6
!	!LO:TUP:a:problem:klamra łukowa	!
8GG\L 8G	24dd\LL	.
.	24cc#\	.
.	24dd\JJ	.
8G\ 8B 8e	8b|\L	.
8GG#X\J 8G#X	8e^\J 8b 8ee	.
!!LO:LB:g=original	!	!
=7	=7	=7
8AA\L 8A	8a'\	.
8G\ 8A 8c#	8cc#m\L	.
8G\J 8A 8c#	16b\L	.
.	16a\JJ	.
=8	=8	=8
8DD\L 8D	16ff#\LL	.
.	16ff#\JJ	.
8F#\ 8A 8d	8dd\L	.
8F#\J 8A 8d	8a^^\J 8aa	.
=9	=9	=9
8DD\L 8D	8a'\	.
8F#\ 8A 8d	8.a^\L 8.ff#	.
8FF#\J 8F#	.	.
.	16ee\Jk	.
=10	=10	=10
!	!LO:TUP:a:problem:klamra łukowa	!
8GG\L 8G	24dd\LL	.
.	24cc#\	.
.	24dd\JJ	.
8G\ 8B 8e	8b`\L	.
8GG#X\J 8G#X	8e^\J 8b 8ee	.
=11	=11	=11
8AA\L 8A	8a|\	.
8G\ 8A 8c#	(16cc#\LL	.
.	32dd\L	.
.	32cc#\JJJ	.
8G\J 8A 8c# 8e	16b/LL	.
.	16a/JJ)	.
=12	=12	=12
8F#\ 8A 8d	8dd\	.
4DD\ 4D	4f#\ 4a 4dd	.
!!LO:LB:g=original	!	!
=13:|!	=13:|!	=13:|!
8AAA\L 8AA	(16A/LL	f
.	16c#/	.
8G\ 8A 8c#	16e/	.
.	16a/	.
8G\J 8A 8c#	16cc#/	.
.	16ee/JJ)	.
=14	=14	=14
8DD\L 8D	(16gg\LL	.
.	16ff#\JJ)	.
8F#\ 8A 8d	4dd\	.
8F#\J 8A 8d	.	.
=15	=15	=15
8AA\L	(16ff#\LL	.
.	16ee\	.
8G\ 8A 8c#	16cc#\	.
.	16a\	.
8G\J 8A 8c#	16b-X\	.
.	16a\JJ)	.
=16	=16	=16
8D\L	16dd\LL	.
.	16a\	.
8F#\ 8A 8d	16ff#\	.
.	16dd\J	.
8F#\J 8A 8d	8a^^\J 8aa	.
=17	=17	=17
8AAA\L 8AA	(16A/LL	.
.	16c#/	.
8G\ 8A 8c#	16e/	.
.	16a/	.
8G\J 8A 8c#	16cc#/	.
.	16ee/JJ)	.
=18	=18	=18
8DD\L 8D	(16gg\LL	.
.	16ff#\JJ)	.
8F#\ 8A 8d	4dd\	.
8F#\J 8A 8d	.	.
!!LO:LB:g=original	!	!
=19	=19	=19
8AA\L	(16ff#\LL	.
.	16ee\	.
8G\ 8A 8c#	16cc#\	.
.	16a\	.
.	8qcc#/	.
8G\J 8A 8c#	16b\	.
.	16a\JJ) 16cc#	.
=20	=20	=20
8F#\ 8A 8d	8dd\	.
4DD/ 4D	4d\ 4f# 4a 4dd	.
=21:|!|:	=21:|!|:	=21:|!|:
!	!LO:TX:b:i:t=dolce	!
8BBB\L 8BB	8ff#|\	p
8F#\ 8B 8d	(8.ddd^\L	.
8F#\J 8B 8d	.	.
.	32ccc#\LL	.
.	32bb\JJJ)	.
=22	=22	=22
8FF#\L 8F#	16aa#X\LL	.
.	16gg\JJ	.
8F#\ 8A#X 8e	8ff#\L	.
8F#\J 8A# 8e	8ee\J	.
=23	=23	=23
8BB\L	(16dd\LL	.
.	16cc#\	.
8F#\ 8B 8d	16b\	.
.	16cc#\	.
8F#\J 8B 8d	16dd\	.
.	16b\JJ)	.
=24	=24	=24
8FF#\L 8F#	16cc#\LL	.
.	16a#X\JJ	.
8F#\ 8A#X 8e	4f#^/	.
8F#\J 8A# 8e	.	.
!!LO:LB:g=original	!	!
=25	=25	=25
8BBB\L 8BB	8ff#\	.
8F#\ 8B 8d	8.ddd^\L	.
8F#\J 8B 8d	.	.
.	32ccc#\LL	.
.	32bb\JJJ	.
=26	=26	=26
8FF#\L 8F#	(16aa#X\LL	.
.	16gg\	.
8F#\ 8A#X 8e	16ff#\	.
.	16ee\	.
8F#\J 8A# 8e	16dd\	.
.	16cc#\JJ)	.
=27	=27	=27
8BB\L	(16b\LL	>
.	16cc#\	.
8F#\ 8B 8d	16dd\	.
.	16ee\	.
8F#\J 8c# 8e	16ff#\	.
.	16a#X\JJ)	]]
=28	=28	=28
8B\L 8d	(16cc#\LL	.
.	16b\JJ)	.
8BB\J 8B	8d^\L 8f# 8b	.
8r	8b-X\J	.
=29	=29	=29
8DD\L 8D	8a|\	f
8F#\ 8A 8d	8.a^\L 8.ff#	.
8FF#\J 8F#	.	.
.	16ee\Jk	.
=30	=30	=30
!	!LO:TUP:a:problem:klamra łukowa	!
8GG\L 8G	24dd\LL	.
.	24cc#\	.
.	24dd\JJ	.
8G\ 8B 8e	8b|\L	.
8GG#X\J 8G#X	8e^\J 8b 8ee	.
!!LO:LB:g=original	!	!
=31	=31	=31
8AA\L 8A	8a'\	.
8G\ 8A 8c#	8cc#m\L	.
8G\J 8A 8c#	16b\L	.
.	16a\JJ	.
=32	=32	=32
8DD\L 8D	16ff#\LL	.
.	16ff#\JJ	.
8F#\ 8A 8d	8dd\L	.
8F#\J 8A 8d	8a^^\J 8aa	.
=33	=33	=33
8DD\L 8D	8a'\	.
8F#\ 8A 8d	8.a\L 8.ff#	.
8FF#\J 8F#	.	.
.	16ee^\Jk	.
=34	=34	=34
!	!LO:TUP:a:problem:klamra łukowa	!
8GG\L 8G	24dd\LL	.
.	24cc#\	.
.	24dd\JJ	.
8G\ 8B 8e	8b|\L	.
8GG#X\J 8G#X	8e^\J 8b 8ee	.
=35	=35	=35
8AA\L 8A	8a|\	.
8G\ 8A 8c#	(16cc#\LL	.
.	32dd\L	.
.	32cc#\JJJ	.
8G\J 8A 8c#	16b\LL	.
.	16a\JJ)	.
=36	=36	=36
8F#\ 8A 8d	8dd\	.
4DD/ 4D	4f#\ 4a 4dd	.
!!LO:PB:g=original	!	!
*kcancel	*kcancel	*
=37||	=37||	=37||
*clefG2	*	*
*k[f#]	*k[f#]	*
!LO:TX:t=P:problem: znaki przykluczowe: krzyżyk nastepnie kasownik 	!LO:TX:t=P:problem: znaki przykluczowe: kasownik nastepnie krzyżyk	!
8c/L 8d 8f# 8a	8dd'\	p
8c/ 8d 8f# 8a	8.ff#^\L	.
8c/J 8f# 8a	.	.
.	16aa\Jk	.
=38	=38	=38
8B/L 8d 8g	16gg\LL	.
.	16gg\JJ	.
8B/ 8d 8g	8bb\L	.
8B/J 8d 8g	8ddd\J	.
=39	=39	=39
8A/L 8c 8d 8f#	16ccc\LL	.
.	16ccc#X\JJ	.
8A/ 8c 8d 8f#	8cccn\L	.
8A/J 8c 8d	16aa\L	.
.	16ff#\JJ	.
=40	=40	=40
8G/L 8B 8d	16gg\LL	.
.	16gg\JJ	.
8G/ 8B 8d	8bb\L	.
8G/J 8B 8d	8gg\J	.
*clefF4	*	*
=41	=41	=41
8DD\L 8D	8d\ 8dd	f
8D\ 8F# 8c	8.f#^\L 8.ff#	.
8D\J 8F# 8c	.	.
.	16a\Jk 16aa	.
!!LO:LB:g=original	!	!
=42	=42	=42
8GG\L	16g\LL 16gg	.
.	16g\J 16gg	.
8D\ 8G 8B	8b\ 8bb	.
8D\J 8G 8B	8dd\J 8ddd	.
=43	=43	=43
.	8qdd/	<
8DD\L 8D	(16ddd\LL	.
.	16ccc#X\	.
8D\ 8F# 8c	16cccn\	.
.	16dd\	[ >
8D\J 8F# 8c	16ff#\	.
.	16aa\JJ)	]]
=44	=44	=44
8GG/	(16ccc\LL	.
.	16bb\JJ)	.
4D\ 4G 4B	4gg\	.
=45!|:	=45!|:	=45!|:
.	8qb/	f
8DD#X\L 8D#X	8b\L 8ff# 8bb	.
8F#\ 8A 8B	8b\ 8ff# 8bb	.
8BBB\J 8BB	8b\J 8ff# 8bb	.
=46	=46	=46
*	*^	*
8EE\ 8E	(<16gg/LL	4.b\	.
.	16ff#/JJ)	.	.
16G\LL 16B 16e	4ee/	.	.
16FF#\ 16F#	.	.	.
16GG\ 16G	.	.	.
16GG#X\JJ 16G#X	.	.	.
=47	=47	=47	=47
8AA\ 8A	8.aa/	8a\L 8cc#X	.
4G\ 4A 4c#X	.	8a\J 8ee	.
.	16gg/LL	.	.
.	16ff#/	8r	.
.	16ee/JJ	.	.
*	*v	*v	*
!!LO:LB:g=original	!	!
=48	=48	=48
8DD\L 8D	(16dd\LL	.
.	16ee\	.
8F#\J 8A 8d	16ff#\	.
.	16gg\	.
8r	16aa\	.
.	16bb\JJ)	.
=49	=49	=49
8FF#\L 8F#	16dd:\LL 16aa: 16ddd:	.
.	16ccc#X\JJ	.
8A\ 8c 8d	8cccn^\L	.
8A\J 8c 8d	(16aa\L	.
.	16ff#\JJ)	.
=50	=50	=50
8GG\L 8G	16gg\LL	.
.	16bb\JJ	.
8G\ 8B 8d	(8.eee^\L	.
8G\J 8B 8d	.	.
.	16ddd\Jk)	.
=51	=51	=51
8DD\L 8D	(16ddd\LL	<
.	16ccc#X\	.
8D\ 8F# 8c	16cccn\	.
.	16dd\	[ >
8D\J 8F# 8c	16ff#\	.
.	16aa\JJ)	]]
=52	=52	=52
8GG\ 8G	(16ccc\LL	.
.	16bb\JJ)	.
4D\ 4G 4B	4gg\	.
!!LO:LB:g=original	!	!
=53:|!	=53:|!	=53:|!
*clefG2	*	*
8e/L 8g 8b	(16ee'\LL	.
.	16dd#X'\	.
8e/ 8g 8b	16ee'\	.
.	16ff#'\	.
8e/J 8g 8b	16gg'\	.
.	16aa'\JJ)	.
=54	=54	=54
8e/L 8g 8b	(4bb^\	.
8e/ 8g 8b	.	.
8e/J 8g 8b	8gg\)	.
=55	=55	=55
8e/L 8a 8cc	16aa'\LL	.
.	16aa'\JJ	.
8e/ 8a 8cc	8aa'\L	.
8e/J 8a 8cc	8aa'\J	.
=56	=56	=56
8e/L 8g 8b	(8.bb^\L	.
8e/ 8g 8b	.	.
.	16aa\L	.
8e/J 8g 8b	16gg\	.
.	16ff#\JJ)	.
=57	=57	=57
8e/L 8g 8b	(16ee'\LL	.
.	16dd#X'\	.
8e/ 8g 8b	16ee'\	.
.	16ff#'\	.
8e/J 8g 8b	16gg'\	.
.	16aa'\JJ)	.
!!LO:LB:g=original	!	!
=58	=58	=58
8e/L 8g 8b	(4bb^\	.
8e/ 8g 8b	.	.
8e/J 8g 8b	8gg\)	.
=59	=59	=59
8d#X/L 8a 8b	(16ff#\LL	.
.	16bb\JJ)	.
8B/ 8f# 8a	8b'\L	.
8B/J 8f# 8a	8b\J 8dd#X	.
*clefF4	*	*
=60	=60	=60
*>A1	*>A1	*>A1
8E\L 8e	8g\ 8b 8ee	.
8EE\J 8E	8r	.
8r	8b\	.
=61:|!	=61:|!	=61:|!
*>A2	*>A2	*>A2
8E\L 8e	8g\ 8b 8ee	.
8EE\J 8E	8r	.
8r	8d/	.
=62	=62	=62
*>B	*>B	*>B
8GG\L 8G	(16g\LL	.
.	16b\J)	.
8G\ 8B 8d	8dd'\	.
8G\J 8B 8d	8dd'\J	.
=63	=63	=63
8GG\L 8G	(8.gg^\L	.
8G\ 8B 8d	.	.
.	16dd\L	.
8G\J 8B 8d	16b\	.
.	16g\JJ)	.
!!LO:LB:g=original	!	!
=64	=64	=64
8DD\L 8D	16a'/LL	.
.	16a'/JJ	.
8F#\ 8A 8d	8a'/L	.
8F#\J 8A 8d	8a'/J	.
=65	=65	=65
(8.GG^\ 8.G	(8.b^>/	.
16d#X\LL	16a/LL	.
16e\	16g/	.
16B\JJ)	16f#/JJ)	.
=66	=66	=66
.	8qe/	.
8EE\L 8E	(16ee'\LL	p
.	16dd#X'\	.
8G\ 8B 8e	16ee'\	.
.	16ff#'\	.
8G\J 8B 8e	16gg'\	.
.	16aa'\JJ)	.
=67	=67	=67
8EE\L 8E	(4b^\ 4bb	.
8G\ 8B 8e	.	.
8G\J 8B 8e	8gg\)	.
=68	=68	=68
8DD#X\L 8D#X	(16ff#\LL	.
.	16bb\JJ)	.
8F#\ 8A 8B	8b'\L	.
8BBB\J 8BB	8a\J 8dd#X	.
=69	=69	=69
!LO:TX:a:t=P:problem:mixed beam	!	!
8EE\L 8E	4g\ 4ee	.
8EEE/J 8EE	.	.
8r	8r	.
!!LO:PB:g=original	!	!
=70||	=70||	=70||
*k[f#c#]	*k[f#c#]	*
8AA\ 8A	(16ee\LL 16gg 16eee	ff
.	16ccc#\JJ)	.
8CC#/L 8C#	8ee'\L 8gg 8aa	.
8AAA/J 8AA	8ee'\J 8gg 8ccc#	.
=71	=71	=71
8DD\L 8D	(16dd\LL 16ff# 16ddd	.
.	16ff#\	.
8F#\ 8A 8d	16bb\	.
.	16aa\	.
8F#\J 8A 8d	16ff#\	.
.	16dd\JJ)	.
=72	=72	=72
8AA\L	(16ff#\LL	.
.	16ee\JJ)	.
8G\ 8A 8c#	8a'\L	.
8G\J 8A 8c#	8cc#'\J	.
=73	=73	=73
8D\L	(16dd\LL	.
.	16a\	.
8F#\ 8A 8d	16ff#\	.
.	16dd\J)	.
8F#\J 8A 8d	8aa'\J	.
=74	=74	=74
8AA\ 8A	(16ee\LL 16gg 16eee	.
.	16ccc#\JJ)	.
8CC#/L 8C#	8ee'\L 8gg 8aa	.
8AAA/J 8AA	8ee'\J 8gg 8ccc#	.
=75	=75	=75
8DD\L 8D	16dd^^\LL 16ff# 16ddd	.
.	16ff#\	.
8F#\ 8A 8d	(16bb\	.
.	16aa\	.
8F#\J 8A 8d	16ff#\	.
.	16dd\JJ)	.
=76	=76	=76
8AA\L	(16ff#\LL	.
.	16ee\JJ)	.
8G\ 8A 8c#	8a'\L	.
8E\J 8G 8A	8cc#'\J	.
!!LO:LB:g=original	!	!
=77||	=77||	=77||
!	!LO:TX:a:B:t=CODA	!
8D'\L 8F# 8A	8d'\ 8dd	.
8D'\ 8F# 8A	16d'/LL	.
.	16d'/J	.
8D'\J 8F# 8A	8d'/J	.
=78	=78	=78
8D'\L 8F# 8A	(16d/LL	.
.	16f#/	.
8D'\ 8F# 8A	16a/	.
.	16f#/	.
8D'\J 8F# 8A	16d/	.
.	16f#/JJ)	.
=79	=79	=79
8D'\L 8G 8A 8c#	8e'/L	.
8D'\ 8G 8A 8c#	16e'/L	.
.	16e'/J	.
8D'\J 8G 8A 8c#	8e'/J	.
=80	=80	=80
8D'\L 8G 8A 8c#	(16e/LL	.
.	16g/	.
8D'\ 8G 8A 8c#	16b/	.
.	16g/	.
8D'\J 8G 8A 8c#	16e/	.
.	16g/JJ)	.
=81	=81	=81
8D'\L 8F# 8A 8d	8f#'/L	.
8D'\ 8F# 8A 8d	16f#'/L	.
.	16f#'/J	.
8D'\J 8F# 8A 8d	8f#'/J	.
!!LO:LB:g=original	!	!
=82	=82	=82
8D'\L 8F# 8A 8d	(16f#/LL	.
.	16a/	.
8D'\ 8F# 8A 8d	16dd/	.
.	16a/	.
8D'\J 8F# 8A 8d	16f#/	.
.	16a/JJ)	.
=83	=83	=83
8D'\L 8G 8A 8e	8cc#'\L	.
8D'\ 8G 8A 8e	16cc#'\L	.
.	16cc#'\J	.
8D'\J 8G 8A 8e	8cc#'\J	.
=84	=84	=84
8D'\L 8G 8A 8e	(16cc#\LL	.
.	16ee\	.
8D'\ 8G 8A 8e	16gg\	.
.	16ee\	.
8D'\J 8G 8A 8e	16cc#\	.
.	16ee\JJ)	.
=85	=85	=85
8D'\L 8F# 8A 8d	8dd'\L	.
8D'\ 8F# 8A 8d	16dd'\L	.
.	16dd'\J	.
8D'\J 8F# 8A 8d	8dd'\J	.
=86	=86	=86
8D'\L 8F# 8A 8d	(16ff#\LL	.
.	16aa\	.
8D'\ 8F# 8A 8d	16cccn\	.
.	16aa\	.
8D'\J 8F# 8A 8d	16ff#\	.
.	16aa\JJ)	.
=87	=87	=87
8D'\L 8G 8B 8d	8gg'\L	.
8D'\ 8G 8B 8d	16gg'\L	.
.	16gg'\J	.
8D'\J 8G 8B 8d	8gg'\J	.
!!LO:LB:g=original	!	!
=88	=88	=88
8D'\L 8G 8B 8d	(16gg\LL	.
.	16bb\	.
8D'\ 8G 8B 8d	16ddd\	.
.	16bb\	.
8D'\J 8G 8B 8d	16gg\	.
.	16bb\JJ)	.
=89	=89	=89
8D'\L 8G 8A 8e	8ccc#'\L	.
8D'\ 8G 8A 8e	16ccc#'\L	.
.	16ccc#'\J	.
8D'\J 8G 8A 8e	8ccc#'\J	.
=90	=90	=90
8D'\L 8G 8A 8e	(16ccc#\LL	.
.	16eee\	.
8D'\ 8G 8A 8e	16ggg\	.
.	16eee\	.
8D'\J 8G 8A 8e	16ccc#\	.
.	16eee\JJ)	.
=91	=91	=91
8D'^^\ 8F# 8A 8d	8ddd|\	.
!	!LO:TX:b:i:t=Allo	!
8r	(16aa\LL	.
.	16gg#X\	.
8AA\ 8E 8A	16bb\	.
.	16aa\JJ)	.
=92	=92	=92
8DD\L 8D	(16ff#\LL	.
.	16aa\JJ)	.
8F#\ 8A 8d	4dd|^^\ 4ff# 4ddd	.
8F#\J 8A 8d	.	.
=93	=93	=93
8AA\L	8bb^\L	.
8G\ 8A 8c#	(16gg\L	.
.	16ee\	.
8G\J 8A 8c#	16b\	.
.	16cc#\JJ)	.
!!LO:LB:g=original	!	!
=94	=94	=94
8D\L	(16dd\LL	.
.	16ff#\JJ)	.
8F#\ 8B 8d	4a^/	.
8F#\J 8B 8d	.	.
=95	=95	=95
8DD\L 8D	8dd|\L	.
8D\ 8F# 8A	(16aa\L	.
.	16gg#X\	.
8AA\J 8E 8A	16bb\	.
.	16aa\JJ)	.
=96	=96	=96
8DD\L 8D	(16ff#\LL	.
.	16aa\JJ)	.
8F#\ 8A 8d	4dd^^\ 4ddd	.
8F#\J 8A 8d	.	.
=97	=97	=97
8AA\L	8bb^\L	.
8G\ 8A 8c#	(16gg\L	.
.	16ee\	.
8G\J 8A 8c#	16cc#\	.
.	16aa\JJ)	.
=98	=98	=98
8D|^^\ 8F# 8A 8d	8dd|^^\L 8ddd	.
8r	(16ccc#\L 16fff#	.
.	16aaa\J)	.
(16AA\LL 16A	8aa^\J 8ccc#	.
16GG\JJ) 16G	.	.
=99	=99	=99
8FF#\L 8F#	8dd|^^\L 8ddd	.
8F#\J 8A 8d	(16ccc#\L 16fff#	.
.	16aaa\J)	.
(16AA\LL 16A	8aa^\J 8ccc#	.
16GG\JJ) 16G	.	.
!!LO:LB:g=original	!	!
=100	=100	=100
8FF#\L 8F#	8dd|^^\L 8ddd	.
8F#\J 8A 8d	(16ccc#\L 16fff#	.
.	16aaa\J)	.
(16AA\LL 16A	8aa^\J 8ccc#	.
16GG\JJ) 16G	.	.
=101	=101	=101
8FF#\L 8F#	8dd|^^\L 8ddd	.
8F#\J 8A 8d	(16ccc#\L 16fff#	.
.	16aaa\J)	.
(16AA\LL 16A	8aa^\J 8ccc#	.
16GG\JJ) 16G	.	.
=102	=102	=102
4FF#|^^\ 4F#	4dd|^^\ 4aa 4ddd	.
8r	8r	.
=103	=103	=103
8D\L 8d	8dd\L 8ff# 8aa 8ddd	<
8AA\ 8A	8dd\ 8ff# 8aa 8ddd	.
8FF#\J 8F#	8dd\J 8ff# 8aa 8ddd	.
=104	=104	=104
4DD/ 4D	4dd\ 4ff# 4aa 4ddd	.
8r	8r	[
=105	=105	=105
8DD\L 8D	8F#</L 8A< 8d	.
8AAA\ 8AA	8F#</ 8A< 8d	.
8FFF#\J 8FF#	8F#</J 8A< 8d	.
=106	=106	=106
*8ba	*	*
4.DDD\	4.F#</ 4.A< 4.d	.
*X8ba	*	*
==	==	==
*-	*-	*-
!!!system-decoration: {(s1,s2)}
!!!RDF**kern: > = above
!!!RDF**kern: < = below
!!!RDF**kern: N = linked
!!!RDF**kern: | = vertical stroke
!!!ENC: Berenika Jozajtis
!!!END: 2022-11-27
!!!ENC: Natalia Wrzos
!!!END: 2022-12-06
!!!YEC: Copyright 2022 Narodowy Instytut Fryderyka Chopina (https://polishscores.org)
!!!YEM: License CC-BY-4.0 (https://creativecommons.org/licenses/by/4.0)
